src/assets/duotone/AddCircle.svg

<?xml version="1.0" encoding="UTF-8"?>
<svg width="24" height="24" viewBox="0 0 24 24" xmlns="http://www.w3.org/2000/svg">
 <path d="m12 22c5.5228 0 10-4.4772 10-10 0-5.5228-4.4772-10-10-10-5.5228 0-10 4.4772-10 10 0 5.5228 4.4772 10 10 10z" opacity=".4"/>
 <path d="m16 11.25h-3.25v-3.25c0-0.41-0.34-0.75-0.75-0.75s-0.75 0.34-0.75 0.75v3.25h-3.25c-0.41 0-0.75 0.34-0.75 0.75s0.34 0.75 0.75 0.75h3.25v3.25c0 0.41 0.34 0.75 0.75 0.75s0.75-0.34 0.75-0.75v-3.25h3.25c0.41 0 0.75-0.34 0.75-0.75s-0.34-0.75-0.75-0.75z"/>
</svg>

<svg width="24" height="24" viewBox="0 0 24 24"  xmlns="http://www.w3.org/2000/svg">
<path opacity="0.4" d="M12 22C17.5228 22 22 17.5228 22 12C22 6.47715 17.5228 2 12 2C6.47715 2 2 6.47715 2 12C2 17.5228 6.47715 22 12 22Z" />
<path d="M16 11.25H12.75V8C12.75 7.59 12.41 7.25 12 7.25C11.59 7.25 11.25 7.59 11.25 8V11.25H8C7.59 11.25 7.25 11.59 7.25 12C7.25 12.41 7.59 12.75 8 12.75H11.25V16C11.25 16.41 11.59 16.75 12 16.75C12.41 16.75 12.75 16.41 12.75 16V12.75H16C16.41 12.75 16.75 12.41 16.75 12C16.75 11.59 16.41 11.25 16 11.25Z" />
</svg>
